X: 305722
M: 2/4
L: 1/16
K: C
e2 |\
d2G2 G2e2 | d2G2 G2c2 | Bcde f2e2 | e4 d2G2 |\
e3c d3B | c2A2G2F2 | E2c2 D2B2 | c6 "^D.C."y|]
edce dcBd | c2A2G2F2 | E2d2 D2B2 | c6 "^D.C."y |]


